components/icon/svg/24/av_volume-up.svg

<?xml version="1.0" encoding="UTF-8"?>
<svg width="24px" height="24px" viewBox="0 0 24 24" version="1.1" xmlns="http://www.w3.org/2000/svg" xmlns:xlink="http://www.w3.org/1999/xlink">
    <!-- Generator: Sketch 64 (93537) - https://sketch.com -->
    <title>ic-db_av_volume-up_24</title>
    <desc>Created with Sketch.</desc>
    <g id="Symbols" stroke="none" stroke-width="1" fill="none" fill-rule="evenodd">
        <g id="24dp-Icon/AV/Volume-Up" fill="#282D37">
            <path d="M11.0697782,4.66308134 C11.6381923,4.66308134 12.0644002,5.13662287 12.0644002,5.68131883 L12.0644002,17.7585785 C12.0644002,18.3269926 11.6381923,18.7769187 11.0697782,18.7769187 C10.880341,18.7769187 10.6435703,18.7294824 10.5014667,18.611097 L6.21525882,15.7220009 L4.51022184,15.7220009 C3.11300739,15.7220009 2,14.6089935 2,13.2118817 L2,10.2044002 C2,8.78357025 3.11300739,7.69417833 4.51022184,7.69417833 L6.21525882,7.69417833 L10.5014667,4.82880034 C10.6707794,4.71554876 10.880341,4.66308134 11.0697782,4.66308134 Z M10.0515407,7.5520748 L7.09139278,9.51760068 C6.92166942,9.63033888 6.71395595,9.70703783 6.52308134,9.70703783 L4.51022184,9.70703783 C4.22601479,9.70703783 4.0128595,9.92019312 4.0128595,10.180682 L4.0128595,13.2118817 C4.0128595,13.4723706 4.22601479,13.7091414 4.51022184,13.7091414 L6.52308134,13.7091414 C6.71251849,13.7091414 6.92228547,13.7850189 7.09139278,13.8985785 L10.0515407,15.8878225 L10.0515407,7.5520748 Z M14.5509039,16.5034676 C14.740341,16.5034676 14.9297782,16.4325185 15.0955998,16.3377486 C16.6348151,15.2957929 17.4637181,13.5197042 17.4637181,11.6725637 C17.4637181,9.82552588 16.6111997,8.09677076 15.0955998,7.03109698 C14.9297782,6.93642975 14.740341,6.86537799 14.5509039,6.86537799 C14.0299261,6.86537799 13.58,7.29158589 13.58,7.83628185 C13.58,8.14410438 13.7221035,8.45202958 14.0062079,8.64146672 C15.0008299,9.30454807 15.5218077,10.4648891 15.5218077,11.6725637 C15.5218077,12.880341 15.0008299,14.040682 14.0062079,14.7274815 C13.745719,14.9169187 13.58,15.2247412 13.58,15.5325637 C13.58,16.0535415 14.0062079,16.5034676 14.5509039,16.5034676 Z M16.4690961,19.3925637 C16.6348151,19.3925637 16.8006368,19.3452301 16.9427403,19.2504602 C19.6422966,17.6875267 21.3,14.7985333 21.3,11.6962819 C21.3,8.57041496 19.6422966,5.68131883 16.9427403,4.11838538 C16.8006368,4.02361547 16.6348151,4 16.4690961,4 C15.9481183,4 15.4981923,4.40259243 15.4981923,4.94718572 C15.4981923,5.27872639 15.6876294,5.61026706 15.9954519,5.79970421 C18.0793632,7.00748151 19.3818077,9.25711177 19.3818077,11.6962819 C19.3818077,14.1117338 18.0793632,16.3614667 15.9954519,17.5928595 C15.6876294,17.7585785 15.4981923,18.0901192 15.4981923,18.4216598 C15.4981923,18.9426377 15.9481183,19.3925637 16.4690961,19.3925637 Z" id="🎨-Color"></path>
        </g>
    </g>
</svg>

<svg width="24" height="24" xmlns="http://www.w3.org/2000/svg"><path d="M11.07 4.663c.568 0 .994.474.994 1.018V17.76c0 .568-.426 1.018-.994 1.018-.19 0-.426-.048-.569-.166l-4.286-2.889H4.51A2.496 2.496 0 012 13.212v-3.008c0-1.42 1.113-2.51 2.51-2.51h1.705l4.286-2.865c.17-.113.38-.166.569-.166zm-1.018 2.89l-2.96 1.965c-.17.112-.378.189-.569.189H4.51a.48.48 0 00-.497.474v3.03a.5.5 0 00.497.498h2.013c.19 0 .4.076.568.19l2.96 1.989V7.552zm4.499 8.95c.19 0 .379-.07.545-.165 1.539-1.042 2.368-2.818 2.368-4.665s-.853-3.576-2.368-4.642a1.127 1.127 0 00-.545-.166.975.975 0 00-.971.971.96.96 0 00.426.805c.995.664 1.516 1.824 1.516 3.032 0 1.207-.521 2.368-1.516 3.054-.26.19-.426.498-.426.806 0 .52.426.97.97.97zm1.918 2.89a.854.854 0 00.474-.143 8.74 8.74 0 004.357-7.554 8.75 8.75 0 00-4.357-7.578.832.832 0 00-.474-.118c-.52 0-.97.403-.97.947 0 .332.189.663.496.853a6.822 6.822 0 013.387 5.896c0 2.416-1.303 4.665-3.387 5.897a.957.957 0 00-.497.829c0 .52.45.97.971.97z" fill="#282D37" fill-rule="evenodd"/></svg>
